X: 1854
T: Ariel, The
R: hornpipe
M: 4/4
K: Amajor
(3AAA|A,>CE>A c2 B>A|B>E G>B d2 c>B|c/B/A c>e a>e c>A|B>c d>B A>G F>E|
A,>CE>A c2 B>A|B>E G>B d2 c>B|c>e A>c B<E G>B|A/B/A G>B A2:|
(3aaa|:a>A c>e a2 a>g|f>A d>e f/g/f e>d|c/B/A c>e a>e c>A|B>c d>B A>G F>E|
[1a>e c>e a2 a>g|f>A d>e f/g/f e>d|c>e a>e c>e d>B|c/d/c A2 A2 (3efg:|
[2A,>CE>A c2 B>A|B>E G>B d2 c>B|c>e A>c B<E G>B|A/B/A G>B A2||

